svg/cryengine.svg

<svg viewBox="0 0 20 20" xmlns="http://www.w3.org/2000/svg">
<rect width="100%" height="100%" fill="black"/>
<path fill-rule="evenodd" clip-rule="evenodd" d="M12.776 12.6522C12.6837 12.6591 12.5915 12.666 12.4998 12.6752L12.4605 12.5831C12.533 12.4924 12.5994 12.397 12.6593 12.2976C12.8745 11.9418 13.0601 11.569 13.2143 11.1831C13.4499 10.4235 13.4036 9.60487 13.084 8.87631C12.7644 8.14775 12.1928 7.55767 11.473 7.21346C10.7374 6.85963 9.89838 6.78124 9.10945 6.99263C8.32052 7.20403 7.63436 7.69108 7.1764 8.36476C6.22365 9.8246 6.39015 12.2792 8.49915 13.3176C9.35635 13.7311 10.292 13.9587 11.2441 13.9854C13.3166 14.0977 15.3724 13.5606 17.1225 12.4495C17.798 12.0254 18.412 11.511 18.947 10.9206C19.324 10.5039 19.3448 10.1953 19.0349 9.7348C18.9073 9.54821 18.7642 9.3726 18.6071 9.20981C17.5764 8.16526 16.3296 7.35674 14.9533 6.84044C13.8241 6.38911 12.6343 6.10592 11.4221 6C11.4854 6.03214 11.5511 6.0591 11.6187 6.08059C11.8649 6.18351 12.114 6.28225 12.3637 6.38119C12.9632 6.61874 13.5657 6.85749 14.137 7.1582C15.3405 7.77286 16.3731 8.6737 17.1433 9.78085C17.474 10.2644 17.4647 10.444 17.0392 10.8377C16.0004 11.772 14.7091 12.382 13.3253 12.5923C13.145 12.6245 12.9605 12.6384 12.776 12.6522ZM8.57543 8.84151C8.94277 8.47876 9.43866 8.27443 9.95602 8.27265H9.96758C10.2254 8.2693 10.4814 8.31697 10.7205 8.4129C10.9597 8.50883 11.1774 8.65111 11.3609 8.83147C11.5444 9.01184 11.6901 9.22671 11.7895 9.4636C11.889 9.70048 11.9402 9.95468 11.9401 10.2114C11.9492 10.4752 11.9049 10.738 11.8098 10.9844C11.7147 11.2307 11.5707 11.4554 11.3866 11.6452C11.2024 11.8349 10.9817 11.9859 10.7378 12.0889C10.4938 12.192 10.2315 12.2451 9.96643 12.2451C9.7014 12.2451 9.43908 12.192 9.1951 12.0889C8.95111 11.9859 8.73046 11.8349 8.54629 11.6452C8.36212 11.4554 8.21819 11.2307 8.12309 10.9844C8.02798 10.738 7.98364 10.4752 7.99271 10.2114C7.99878 9.69632 8.20809 9.20426 8.57543 8.84151Z" fill="white"/>
<path d="M7.43079 13.9094C7.50086 13.914 7.57116 13.914 7.64123 13.9094L7.65279 13.8541L7.2666 13.7229C6.17009 13.3637 5.13349 12.8437 4.19098 12.1801C3.61286 11.7842 3.12121 11.2759 2.74566 10.6858C2.65505 10.5672 2.60832 10.4211 2.61338 10.2721C2.61843 10.1232 2.67496 9.98057 2.77341 9.86834C2.85458 9.77136 2.93353 9.67124 3.01249 9.57111C3.14725 9.40022 3.28204 9.2293 3.42785 9.07395C4.68533 7.76812 6.23417 6.77575 7.94879 6.17729C8.00105 6.1594 8.051 6.13577 8.10109 6.11208C8.12193 6.10222 8.14279 6.09236 8.16385 6.08289C8.0903 6.05428 8.0101 6.04709 7.9326 6.06216C5.96469 6.36693 4.10101 7.14462 2.50285 8.32791C1.97562 8.73351 1.48715 9.18674 1.04366 9.68183C0.655164 10.1055 0.655164 10.4394 1.02285 10.8585C1.37107 11.2649 1.76264 11.6324 2.19066 11.9545C3.75623 13.0897 5.54841 13.6193 7.43079 13.9094Z" fill="white"/>
</svg>

<svg xmlns="http://www.w3.org/2000/svg" viewBox="0 0 20 20">
  <rect width="100%" height="100%"/>
  <path fill="#fff" fill-rule="evenodd" d="M12.78 12.65c-.1 0-.19.02-.28.03l-.04-.1.2-.28c.21-.36.4-.73.55-1.12a3.3 3.3 0 0 0-1.74-3.97 3.42 3.42 0 0 0-4.3 1.15c-.95 1.46-.78 3.92 1.33 4.96.86.41 1.8.64 2.74.67a9.96 9.96 0 0 0 5.88-1.54 8.72 8.72 0 0 0 1.83-1.53c.37-.42.4-.72.08-1.19a4.04 4.04 0 0 0-.42-.52 10.13 10.13 0 0 0-3.66-2.37A12.43 12.43 0 0 0 11.42 6l.2.08.74.3c.6.24 1.2.48 1.78.78a8.21 8.21 0 0 1 3 2.62c.33.48.32.66-.1 1.06a7.16 7.16 0 0 1-4.26 1.81Zm-4.2-3.8c.36-.37.86-.58 1.38-.58a1.95 1.95 0 0 1 1.98 1.94 1.96 1.96 0 0 1-1.97 2.04 1.98 1.98 0 0 1-1.4-3.4Z" clip-rule="evenodd"/>
  <path fill="#fff" d="M7.43 13.9h.21l.01-.05-.38-.13c-1.1-.36-2.14-.88-3.08-1.54-.58-.4-1.07-.9-1.44-1.5a.65.65 0 0 1 .02-.81l.24-.3c.14-.17.27-.34.42-.5 1.26-1.3 2.8-2.3 4.52-2.9l.15-.06.06-.03a.42.42 0 0 0-.23-.02c-1.97.3-3.83 1.08-5.43 2.27-.52.4-1.01.86-1.46 1.35-.38.43-.38.76-.02 1.18.35.4.74.77 1.17 1.1a11.72 11.72 0 0 0 5.24 1.95Z"/>
</svg>
